svg/set/M3C/WM.svg

<?xml version="1.0" encoding="UTF-8" standalone="no"?>
<svg
   width="1000"
   height="1000"
   viewBox="0 0 1000 1000"
   version="1.1"
   xml:space="preserve"
   style="clip-rule:evenodd;fill-rule:evenodd;stroke-linejoin:round;stroke-miterlimit:2"
   id="svg3"
   xmlns="http://www.w3.org/2000/svg"
   xmlns:svg="http://www.w3.org/2000/svg"><defs
   id="defs3" />
    <g
   transform="translate(-4765.7614,-0.657907)"
   id="g3">
        <g
   id="WM"
   transform="translate(-66.5687,0.657907)">
            <rect
   x="4832.3301"
   y="0"
   width="1000"
   height="1000"
   style="fill:none"
   id="rect1" />
            <g
   transform="translate(4840.37)"
   id="g1">
                <path
   d="M 198.434,361.921 C 189.517,226.743 57.062,201.875 57.062,201.875 L 212.392,20.84 h 574.979 l 155.351,181.035 c 0,0 -128.685,31.554 -141.253,159.846 -10.403,-8.643 -24.458,-20.006 -41.092,-32.681 10.662,-50.413 38.829,-105.575 104.804,-144.099 L 774.075,78.827 c 0,0 -51.734,69.105 -85.645,158.897 -3.714,9.836 -7.474,21.082 -11.154,33.592 -10.244,-6.38 -20.723,-12.611 -31.326,-18.545 2.467,-15.372 5.243,-27.902 8.369,-36.747 30.662,-86.78 77.648,-149.045 77.648,-149.045 H 267.608 c 50.993,71.726 77.866,148.389 77.866,148.389 l 2.19,41.697 c -8.701,4.983 -17.304,10.143 -25.745,15.398 -3.787,-12.97 -7.662,-24.603 -11.49,-34.739 C 276.518,147.932 224.784,78.827 224.784,78.827 l -91.106,106.114 c 66.436,38.793 94.534,94.458 105.025,145.156 -16.264,12.334 -30.025,23.38 -40.269,31.824 z m 602.158,27.545 c 4.165,137.661 128.586,171.036 128.586,171.036 0,0 -75.429,334.319 -429.178,418.86 0,0 -326.007,-48.326 -428.569,-418.86 0,0 120.08,-26.26 127.158,-171.503 16.178,8.669 30.822,17.728 44.03,26.869 -2.397,23.673 -6.722,38.803 -6.722,38.803 -30.108,98.196 -107.477,132.607 -107.477,132.607 47.15,157.757 175.823,249.37 175.823,249.37 21.539,-58.463 24.407,-88.413 24.407,-88.413 2.985,-11.944 5.684,-23.868 8.115,-35.753 13.212,0.269 24.677,-1.857 34.538,-5.366 l 1.867,35.531 C 373.986,756.936 340.238,860.87 340.238,860.87 421.619,913.365 500,931.705 500,931.705 590.818,906.781 659.273,860.973 659.273,860.973 639.776,810.98 626.549,744.228 626.549,744.228 c 0,0 -0.094,-14.382 -0.069,-38.464 18.587,7.219 33.644,6.812 33.644,6.812 0,0 0.702,0.024 1.988,-0.006 2.426,11.856 5.12,23.751 8.097,35.665 0,0 2.868,29.95 24.407,88.413 0,0 128.673,-91.613 175.823,-249.37 0,0 -77.369,-34.411 -107.477,-132.607 0,0 -4.236,-14.819 -6.647,-38.073 16.948,-11.476 32.588,-20.671 44.277,-27.132 z M 645.016,578.444 c 1.379,25.284 3.783,51.138 7.396,77.342 -6.819,-6.207 -12.451,-14.881 -15.534,-26.949 -5.713,-22.366 -0.074,-38.873 8.138,-50.393 z m -298.731,78.508 c 3.732,-26.809 6.196,-53.255 7.59,-79.103 6.461,8.814 7.978,16.076 7.978,16.076 8.162,33.736 -2.903,52.632 -15.568,63.027 z"
   id="path1" />
            </g>
            <g
   transform="translate(4840.37)"
   id="g2">
                <path
   d="m 102.341,391.289 c 0,0 244.91,-220.198 397.659,-224.377 0,0 98.635,-29.436 396.147,223.4 0,0 -152.21,55.047 -201.447,132.794 l 34.245,63.476 c 0,0 -74.006,-4.881 -55.512,38.273 0,0 21.058,26.91 47.006,-10.615 0,0 14.371,-31.936 16.367,-44.91 0,0 1.996,-10.18 20.959,-12.376 0,0 21.956,-1.796 25.349,26.747 3.393,28.543 9.927,52.037 -6.649,92.426 -16.576,40.389 -59.078,67.483 -106.717,71.966 0,0 -74.54,9.808 -117.695,-57.166 -43.156,-66.975 7.285,-142.916 7.285,-142.916 l -46.237,-28.023 c 0,0 79.304,-35.589 59.688,-100.602 -19.616,-65.013 -84.839,-54.924 -84.839,-54.924 0,0 -48.269,2.241 -62.56,60.249 -14.292,58.007 55.765,93.109 60.529,95.277 l -46.238,28.509 c 0,0 47.061,68.795 8.968,140.394 0,0 -21.511,40.98 -74.958,55.586 -53.447,14.607 -123.493,-6.823 -150.382,-69.049 -26.89,-62.226 1.328,-111.358 1.328,-111.358 0,0 29.213,-21.909 40.168,11.619 10.955,33.529 17.262,52.12 36.185,58.095 18.922,5.975 26.889,-13.279 26.889,-13.279 0,0 4.648,-25.229 -19.254,-31.537 -9.463,-2.497 -17.508,-2.631 -23.579,-2.853 -9.263,-0.338 -14.147,0.187 -14.147,0.187 l 33.312,-62.096 c 0,0 -52.691,-86.6 -201.87,-132.917 z M 821.306,378.66 c 0,0 -196.452,-175.648 -321.416,-174.796 -124.964,0.853 -321.415,174.96 -321.415,174.96 123.957,59.118 168.222,144.255 168.222,144.255 l -19.738,33.484 c 29.96,13.747 34.894,37.362 34.894,37.362 15.861,65.559 -40.886,75.075 -40.886,75.075 -49.697,12.336 -71.198,-34.189 -71.198,-34.189 0,0 10.574,70.846 78.6,77.19 68.026,6.344 93.756,-49.345 93.756,-49.345 24.32,-65.559 -36.171,-125.533 -36.171,-125.533 l 32.54,-20.523 c -28.103,-25.699 -30.706,-68.111 -30.706,-68.111 0,0 -6.424,-93.68 82.438,-116.163 88.862,-22.483 126.883,51.455 126.883,51.455 41.233,79.826 -17.644,133.03 -17.644,133.03 l 32.207,19.885 c -28.006,34.448 -33.607,56.853 -33.607,56.853 0,0 -19.885,51.252 10.362,85.7 30.247,34.447 71.697,33.327 71.697,33.327 0,0 33.607,1.12 61.054,-21.845 27.446,-22.965 28.566,-56.293 28.566,-56.293 -14.563,28.567 -40.049,35.568 -40.049,35.568 0,0 -59.654,10.363 -72.817,-41.169 -13.163,-51.532 33.933,-71.957 33.933,-71.957 L 652.372,523.111 C 693.625,438.982 821.306,378.66 821.306,378.66 Z"
   id="path2" />
            </g>
        </g>
    </g>
</svg>

<?xml version="1.0" encoding="UTF-8" standalone="no"?>
<!DOCTYPE svg PUBLIC "-//W3C//DTD SVG 1.1//EN" "http://www.w3.org/Graphics/SVG/1.1/DTD/svg11.dtd">
<svg width="100%" height="100%" viewBox="0 0 1000 1000" version="1.1" xmlns="http://www.w3.org/2000/svg" xmlns:xlink="http://www.w3.org/1999/xlink" xml:space="preserve" xmlns:serif="http://www.serif.com/" style="fill-rule:evenodd;clip-rule:evenodd;stroke-linejoin:round;stroke-miterlimit:2;">
    <g transform="matrix(1,0,0,1,-4765.76,-0.657907)">
        <g id="WM" transform="matrix(1,0,0,1,-66.5687,0.657907)">
            <rect x="4832.33" y="0" width="1000" height="1000" style="fill:none;"/>
            <g transform="matrix(1,0,0,1,4840.37,0)">
                <path d="M198.434,361.921C189.517,226.743 57.062,201.875 57.062,201.875L212.392,20.84L787.371,20.84L942.722,201.875C942.722,201.875 814.037,233.429 801.469,361.721C791.066,353.078 777.011,341.715 760.377,329.04C771.039,278.627 799.206,223.465 865.181,184.941L774.075,78.827C774.075,78.827 722.341,147.932 688.43,237.724C684.716,247.56 680.956,258.806 677.276,271.316C667.032,264.936 656.553,258.705 645.95,252.771C648.417,237.399 651.193,224.869 654.319,216.024C684.981,129.244 731.967,66.979 731.967,66.979L267.608,66.979C318.601,138.705 345.474,215.368 345.474,215.368L347.664,257.065C338.963,262.048 330.36,267.208 321.919,272.463C318.132,259.493 314.257,247.86 310.429,237.724C276.518,147.932 224.784,78.827 224.784,78.827L133.678,184.941C200.114,223.734 228.212,279.399 238.703,330.097C222.439,342.431 208.678,353.477 198.434,361.921ZM800.592,389.466C804.757,527.127 929.178,560.502 929.178,560.502C929.178,560.502 853.749,894.821 500,979.362C500,979.362 173.993,931.036 71.431,560.502C71.431,560.502 191.511,534.242 198.589,388.999C214.767,397.668 229.411,406.727 242.619,415.868C240.222,439.541 235.897,454.671 235.897,454.671C205.789,552.867 128.42,587.278 128.42,587.278C175.57,745.035 304.243,836.648 304.243,836.648C325.782,778.185 328.65,748.235 328.65,748.235C331.635,736.291 334.334,724.367 336.765,712.482C349.977,712.751 361.442,710.625 371.303,707.116L373.17,742.647C373.986,756.936 340.238,860.87 340.238,860.87C421.619,913.365 500,931.705 500,931.705C590.818,906.781 659.273,860.973 659.273,860.973C639.776,810.98 626.549,744.228 626.549,744.228C626.549,744.228 626.455,729.846 626.48,705.764C645.067,712.983 660.124,712.576 660.124,712.576C660.124,712.576 660.826,712.6 662.112,712.57C664.538,724.426 667.232,736.321 670.209,748.235C670.209,748.235 673.077,778.185 694.616,836.648C694.616,836.648 823.289,745.035 870.439,587.278C870.439,587.278 793.07,552.867 762.962,454.671C762.962,454.671 758.726,439.852 756.315,416.598C773.263,405.122 788.903,395.927 800.592,389.466ZM645.016,578.444C646.395,603.728 648.799,629.582 652.412,655.786C645.593,649.579 639.961,640.905 636.878,628.837C631.165,606.471 636.804,589.964 645.016,578.444ZM346.285,656.952C350.017,630.143 352.481,603.697 353.875,577.849C360.336,586.663 361.853,593.925 361.853,593.925C370.015,627.661 358.95,646.557 346.285,656.952Z"/>
            </g>
            <g transform="matrix(1,0,0,1,4840.37,0)">
                <path d="M102.341,391.289C102.341,391.289 347.251,171.091 500,166.912C500,166.912 598.635,137.476 896.147,390.312C896.147,390.312 743.937,445.359 694.7,523.106L728.945,586.582C728.945,586.582 654.939,581.701 673.433,624.855C673.433,624.855 694.491,651.765 720.439,614.24C720.439,614.24 734.81,582.304 736.806,569.33C736.806,569.33 738.802,559.15 757.765,556.954C757.765,556.954 779.721,555.158 783.114,583.701C786.507,612.244 793.041,635.738 776.465,676.127C759.889,716.516 717.387,743.61 669.748,748.093C669.748,748.093 595.208,757.901 552.053,690.927C508.897,623.952 559.338,548.011 559.338,548.011L513.101,519.988C513.101,519.988 592.405,484.399 572.789,419.386C553.173,354.373 487.95,364.462 487.95,364.462C487.95,364.462 439.681,366.703 425.39,424.711C411.098,482.718 481.155,517.82 485.919,519.988L439.681,548.497C439.681,548.497 486.742,617.292 448.649,688.891C448.649,688.891 427.138,729.871 373.691,744.477C320.244,759.084 250.198,737.654 223.309,675.428C196.419,613.202 224.637,564.07 224.637,564.07C224.637,564.07 253.85,542.161 264.805,575.689C275.76,609.218 282.067,627.809 300.99,633.784C319.912,639.759 327.879,620.505 327.879,620.505C327.879,620.505 332.527,595.276 308.625,588.968C299.162,586.471 291.117,586.337 285.046,586.115C275.783,585.777 270.899,586.302 270.899,586.302L304.211,524.206C304.211,524.206 251.52,437.606 102.341,391.289ZM821.306,378.66C821.306,378.66 624.854,203.012 499.89,203.864C374.926,204.717 178.475,378.824 178.475,378.824C302.432,437.942 346.697,523.079 346.697,523.079L326.959,556.563C356.919,570.31 361.853,593.925 361.853,593.925C377.714,659.484 320.967,669 320.967,669C271.27,681.336 249.769,634.811 249.769,634.811C249.769,634.811 260.343,705.657 328.369,712.001C396.395,718.345 422.125,662.656 422.125,662.656C446.445,597.097 385.954,537.123 385.954,537.123L418.494,516.6C390.391,490.901 387.788,448.489 387.788,448.489C387.788,448.489 381.364,354.809 470.226,332.326C559.088,309.843 597.109,383.781 597.109,383.781C638.342,463.607 579.465,516.811 579.465,516.811L611.672,536.696C583.666,571.144 578.065,593.549 578.065,593.549C578.065,593.549 558.18,644.801 588.427,679.249C618.674,713.696 660.124,712.576 660.124,712.576C660.124,712.576 693.731,713.696 721.178,690.731C748.624,667.766 749.744,634.438 749.744,634.438C735.181,663.005 709.695,670.006 709.695,670.006C709.695,670.006 650.041,680.369 636.878,628.837C623.715,577.305 670.811,556.88 670.811,556.88L652.372,523.111C693.625,438.982 821.306,378.66 821.306,378.66Z"/>
            </g>
        </g>
    </g>
</svg>
